images/logo.svg

<svg width="289" height="41" viewBox="0 0 289 41" fill="none" xmlns="http://www.w3.org/2000/svg">
<g filter="url(#filter0_d)">
<path d="M194.187 13.3566C193.672 11.9535 193.128 10.579 192.641 9.1758C192.183 7.91583 191.123 7.4863 189.949 7.94447C189.348 8.20219 189.033 8.71763 188.833 9.29035C187.2 13.6716 185.568 18.0529 183.907 22.4341C183.163 24.4386 182.389 26.4432 181.616 28.4477C181.33 29.1635 181.53 30.1658 182.074 30.624C182.676 31.1108 183.334 31.2253 184.079 30.9103C184.766 30.624 185.024 30.0226 185.253 29.3926C185.625 28.3617 186.055 27.3309 186.427 26.2713C186.599 25.7845 186.828 25.5841 187.372 25.5841C189.577 25.6127 191.811 25.5841 194.016 25.5841C194.817 25.5841 194.846 25.6127 195.132 26.3572C195.562 27.474 195.991 28.5908 196.421 29.7076C196.707 30.5094 197.251 30.9676 198.11 31.0535C199.313 31.168 200.43 29.8508 199.943 28.5336C198.912 25.7273 197.824 22.9496 196.765 20.1719C196.421 19.2556 194.49 14.1604 194.146 13.2441" stroke="#FF0000" stroke-width="0.572715" stroke-miterlimit="10" stroke-linecap="round" stroke-linejoin="round"/>
<path d="M50.6939 24.1522C51.3239 22.835 51.6389 21.4318 51.7821 19.9714C51.9539 18.1387 51.6962 16.3633 51.0089 14.6738C49.663 11.3521 47.4295 8.86076 43.9645 7.65806C40.2419 6.36945 36.777 6.99944 33.627 9.31893C30.8494 11.438 29.3317 14.3016 28.988 17.7092C28.6158 21.3173 29.5608 24.6104 32.0807 27.3308C34.0852 29.5071 36.5479 30.7671 39.4687 31.0535C42.1318 31.3112 44.5945 30.538 46.7995 29.0203C47.5154 28.5335 48.0881 27.9035 48.6894 27.3022" stroke="#FF0000" stroke-width="0.572715" stroke-miterlimit="10" stroke-linecap="round" stroke-linejoin="round"/>
<path d="M127.753 24.1522C128.383 22.835 128.698 21.4318 128.841 19.9714C129.013 18.1387 128.755 16.3633 128.068 14.6738C126.722 11.3521 124.488 8.86076 121.023 7.65806C117.301 6.36945 113.836 6.99944 110.686 9.31893C107.908 11.3807 106.362 14.2729 106.018 17.6806C105.646 21.2887 106.591 24.5818 109.111 27.3308C111.115 29.5071 113.578 30.7671 116.499 31.0535C119.162 31.3112 121.625 30.538 123.83 29.0203C124.545 28.5335 125.118 27.9035 125.72 27.3022" stroke="#FF0000" stroke-width="0.572715" stroke-miterlimit="10" stroke-linecap="round" stroke-linejoin="round"/>
<path d="M236.597 24.1522C237.227 22.835 237.542 21.4318 237.685 19.9714C237.857 18.1387 237.599 16.3633 236.912 14.6738C235.566 11.3521 233.333 8.86076 229.868 7.65806C226.145 6.36945 222.68 6.99944 219.53 9.31893C216.753 11.3807 215.206 14.2729 214.863 17.6806C214.49 21.2887 215.435 24.5818 217.955 27.3308C219.96 29.5071 222.422 30.7671 225.343 31.0535C228.006 31.3112 230.469 30.538 232.674 29.0203C233.39 28.5335 233.963 27.9035 234.564 27.3022" stroke="#FF0000" stroke-width="0.572715" stroke-miterlimit="10" stroke-linecap="round" stroke-linejoin="round"/>
<path d="M274.625 31.0532C275.799 31.0532 276.973 31.0532 278.147 31.0532C279.121 31.0532 279.98 30.3086 279.98 29.2205C280.009 28.2182 279.15 27.3878 278.09 27.3878C275.341 27.3878 272.621 27.3878 269.872 27.3878C269.213 27.3878 269.098 27.2733 269.098 26.6146C269.098 25.1256 269.098 23.6365 269.098 22.1475C269.07 21.3743 269.213 21.2598 269.986 21.2598C272.191 21.2598 274.425 21.2598 276.63 21.2598C278.033 21.2598 278.777 20.2289 278.72 19.3125C278.663 18.253 277.861 17.5371 276.63 17.5371C274.396 17.5371 272.134 17.5371 269.872 17.5371C269.184 17.5371 269.098 17.4512 269.098 16.7639C269.098 15.2463 269.098 13.7572 269.098 12.2395C269.07 11.6095 269.242 11.4663 269.872 11.4663L278.119 11.4382" stroke="#FF0000" stroke-width="0.572715" stroke-miterlimit="10" stroke-linecap="round" stroke-linejoin="round"/>
<path d="M97.1413 30.4811C98.5731 32.9151 101.387 30.9521 100.018 27.5304C99.0732 25.1823 98.6877 23.2357 97.6282 20.9449V20.9449C97.4475 20.5835 97.6246 20.1887 97.9021 19.8951C98.4623 19.3025 98.9534 18.655 99.3177 17.8808C100.406 15.5041 100.177 13.1559 98.8023 10.9796C97.7714 9.37602 96.2823 8.34514 94.3924 7.9156C93.791 7.77242 93.161 7.71515 92.5597 7.68652C90.7843 7.65788 88.9802 7.65788 87.2048 7.68652C86.6607 7.68652 86.1453 7.77242 85.6871 8.11605C85.2289 8.48832 84.9998 8.91785 84.9998 9.5192C84.9998 13.2418 84.9998 16.9931 84.9998 20.7158C84.9998 21.2312 84.9712 21.718 84.9426 22.2335" stroke="#FF0000" stroke-width="0.572715" stroke-miterlimit="10" stroke-linecap="round" stroke-linejoin="round"/>
<path d="M218.699 17.8237C218.413 20.4868 219.014 22.835 220.876 24.8395C222.136 26.1854 223.653 26.9872 225.457 27.2449C227.462 27.5026 229.237 26.9012 230.755 25.6699C232.445 24.2954 233.504 22.52 233.79 20.3437C234.134 17.5087 233.39 15.0461 231.328 12.9843C230.268 11.9248 229.008 11.2089 227.519 10.9798C225.028 10.6362 222.823 11.2661 221.019 13.0702C220.876 13.2134 220.704 13.3279 220.618 13.4138" stroke="#FF0000" stroke-width="0.572715" stroke-miterlimit="10" stroke-linecap="round" stroke-linejoin="round"/>
<path d="M109.855 17.8237C109.569 20.4868 110.17 22.835 112.031 24.8395C113.291 26.1854 114.809 26.9872 116.613 27.2449C118.617 27.5026 120.393 26.9012 121.911 25.6699C123.6 24.2954 124.66 22.52 124.946 20.3437C125.29 17.5087 124.545 15.0461 122.483 12.9843C121.424 11.9248 120.164 11.2089 118.675 10.9798C116.183 10.6362 113.978 11.2661 112.174 13.0702C112.031 13.2134 111.859 13.3279 111.773 13.4138" stroke="#FF0000" stroke-width="0.572715" stroke-miterlimit="10" stroke-linecap="round" stroke-linejoin="round"/>
<path d="M32.796 17.8237C32.5096 20.4868 33.111 22.835 34.9723 24.8395C36.2323 26.1854 37.75 26.9872 39.554 27.2449C41.5585 27.5026 43.3339 26.9012 44.8516 25.6699C46.5412 24.2954 47.6007 22.52 47.887 20.3437C48.2307 17.5087 47.4861 15.0461 45.4244 12.9843C44.3648 11.9248 43.1049 11.2089 41.6158 10.9798C39.1245 10.6362 36.9195 11.2661 35.1155 13.0702C34.9723 13.2134 34.8005 13.3279 34.7146 13.4138" stroke="#FF0000" stroke-width="0.572715" stroke-miterlimit="10" stroke-linecap="round" stroke-linejoin="round"/>
<path d="M256.785 23.0361C256.785 19.2275 256.785 13.643 256.757 9.83447C256.757 9.03267 257.329 8.20223 258.274 8.05905C259.219 7.91587 259.992 8.45995 260.279 9.23312C260.422 9.60538 260.393 10.0349 260.393 10.4645C260.393 16.5066 260.393 22.5774 260.393 28.6195C260.393 29.1063 260.422 29.5931 260.193 30.0799C259.649 31.2254 257.988 31.4831 257.157 30.3663C255.812 28.5336 254.466 26.7296 253.148 24.8969C251.344 22.4056 248.137 18.9411 246.333 16.4498" stroke="#FF0000" stroke-width="0.572715" stroke-miterlimit="10" stroke-linecap="round" stroke-linejoin="round"/>
<path d="M60.4868 14.8168C60.4868 13.0987 60.4868 11.3519 60.4868 9.63375C60.4868 8.80332 59.8854 7.97288 59.1409 7.80107C58.2532 7.57198 57.3941 7.94425 56.9646 8.74605C56.8501 8.9465 56.7928 9.17558 56.7928 9.40467C56.7928 16.0482 56.7928 22.6916 56.7928 29.3351C56.7928 30.1369 57.5087 31.0819 58.6541 31.0819C60.8304 31.0533 63.0067 31.0819 65.1831 31.0819C66.6148 31.0819 68.0466 31.0819 69.4784 31.0819C70.2802 31.0819 71.1679 30.6524 71.3684 29.507C71.5115 28.7338 71.1393 27.9034 70.1657 27.5025C69.9366 27.4165 69.7075 27.3879 69.4784 27.3879C66.7867 27.3879 64.0663 27.3879 61.3745 27.3879C60.5441 27.3879 60.4868 27.302 60.4868 26.5002C60.4868 23.2357 60.4868 19.9713 60.4868 16.7068" stroke="#FF0000" stroke-width="0.572715" stroke-miterlimit="10" stroke-linecap="round" stroke-linejoin="round"/>
<path d="M139.035 13.1563C138.835 12.5263 137.661 9.74802 137.374 9.14667C137.088 8.54532 136.63 8.08715 135.914 8.02988C135.083 7.94397 134.425 8.23033 134.024 8.97485C133.766 9.46166 133.766 10.0344 133.967 10.5212C135.656 14.5302 137.346 18.5106 139.035 22.4909C140.066 24.8963 141.068 27.3017 142.042 29.7358C142.5 30.8526 143.617 31.3966 144.619 30.9098C145.049 30.7094 145.335 30.3944 145.507 29.9648C146.423 27.8458 147.339 25.7554 148.199 23.6077" stroke="#FF0000" stroke-width="0.572715" stroke-miterlimit="10" stroke-linecap="round" stroke-linejoin="round"/>
<path d="M162.573 9.86343C162.573 8.88982 161.657 7.85842 160.655 7.88706C159.71 7.91569 158.908 8.86067 158.908 9.77702C158.936 16.2487 158.936 22.6917 158.908 29.1634C158.908 30.0798 159.595 30.9961 160.597 31.0534C161.571 31.1106 162.459 30.3947 162.545 29.3639C162.659 27.9034 162.573 26.4716 162.602 25.0112C162.602 24.6103 162.688 24.2953 163.003 24.009C163.747 23.2931 164.463 22.5486 165.179 21.7754C166.038 20.8877 166.181 21.1168 166.811 21.8899C167.728 23.064 168.644 24.2667 169.56 25.4408" stroke="#FF0000" stroke-width="0.572715" stroke-miterlimit="10" stroke-linecap="round" stroke-linejoin="round"/>
<path d="M23.461 17.7095C25.1792 13.6146 22.917 8.97559 18.3066 7.85879C17.8771 7.74425 17.4189 7.77289 16.9607 7.74425C14.8703 7.65834 12.7799 7.62971 10.6895 7.74425C9.57271 7.83016 9 8.54605 9 9.63421C9 12.326 9.08585 19.056 9.08585 21.7478" stroke="#FF0000" stroke-width="0.572715" stroke-miterlimit="10" stroke-linecap="round" stroke-linejoin="round"/>
<path d="M21.3703 20.4583C19.9671 21.5464 18.3922 22.0046 16.674 22.0619C15.6432 22.0905 14.5836 22.0619 13.5527 22.0619C12.9228 22.0619 12.7796 22.205 12.7796 22.835C12.7796 24.9254 12.7796 27.0445 12.7796 29.1349C12.7796 30.4235 11.6342 31.3398 10.4887 31.0248C9.68692 30.8244 9.08557 30.1371 9.08557 29.2781C9.08557 26.7581 9.08557 24.2382 9.08557 21.6896" stroke="#FF0000" stroke-width="0.572715" stroke-miterlimit="10" stroke-linecap="round" stroke-linejoin="round"/>
<path d="M148.256 23.465C149.143 21.3746 151.778 15.3891 152.665 13.2987C153.066 12.3251 153.524 11.3801 153.897 10.4065C154.24 9.5188 153.839 8.63109 152.952 8.17292C152.093 7.74338 151.005 8.08701 150.632 8.74564C150.289 9.31835 150.088 9.94834 149.83 10.5783C148.628 13.356 147.425 16.1337 146.251 18.94C145.736 20.1999 145.22 21.1163 144.705 22.3762C144.533 22.8058 144.247 23.3218 143.817 23.8945" stroke="#FF0000" stroke-width="0.572715" stroke-miterlimit="10" stroke-linecap="round" stroke-linejoin="round"/>
<path d="M97.1413 30.4808C96.3108 28.4763 95.1369 25.154 94.4496 23.0922C94.106 22.0327 94.106 22.0327 92.9892 22.0327C91.8151 22.0327 90.6411 22.0327 89.467 22.0327C88.837 22.0327 88.6938 22.1759 88.6938 22.8059C88.6938 24.8963 88.6938 27.0153 88.6938 29.1057C88.6938 29.9075 88.3502 30.5375 87.6343 30.8812C86.9757 31.1962 86.2884 31.1389 85.6871 30.6807C85.2576 30.3371 84.9998 29.9075 84.9998 29.3348C84.9998 27.9317 84.9998 26.4999 84.9998 25.0967C84.9998 24.8963 85.0285 24.7245 84.9426 24.5527" stroke="#FF0000" stroke-width="0.572715" stroke-miterlimit="10" stroke-linecap="round" stroke-linejoin="round"/>
<path d="M246.276 16.4497C246.276 16.7361 246.247 17.4227 246.276 17.7377C246.276 21.5749 246.276 25.4121 246.276 29.2779C246.276 30.3375 245.502 31.1106 244.443 31.1106C243.469 31.1106 242.696 30.3088 242.696 29.2779C242.696 26.2998 242.696 23.2931 242.696 20.3149" stroke="#FF0000" stroke-width="0.572715" stroke-miterlimit="10" stroke-linecap="round" stroke-linejoin="round"/>
<path d="M278.091 11.4381C279.236 11.3808 279.78 10.6363 279.952 9.94906C280.124 9.20453 279.837 8.43137 279.15 8.00183C278.749 7.74411 278.291 7.6582 277.804 7.6582C274.368 7.6582 270.932 7.6582 267.524 7.6582C266.923 7.6582 266.35 7.80138 265.92 8.23092C265.577 8.54591 265.405 8.94681 265.405 9.46225C265.434 10.4359 265.405 11.3808 265.405 12.3545" stroke="#FF0000" stroke-width="0.572715" stroke-miterlimit="10" stroke-linecap="round" stroke-linejoin="round"/>
<path d="M76.379 9.5769C76.379 13.815 76.379 25.1542 76.379 29.3923C76.379 30.2228 77.009 30.9959 78.1258 31.0532C79.0708 31.1105 80.0444 30.4232 80.073 29.3351C80.1017 27.5024 80.0158 25.6754 80.0158 23.8084" stroke="#FF0000" stroke-width="0.572715" stroke-miterlimit="10" stroke-linecap="round" stroke-linejoin="round"/>
<path d="M170.821 27.1588C171.651 28.2183 172.396 29.3351 173.284 30.3374C174.028 31.1964 174.944 31.311 175.746 30.681C176.605 29.9651 176.748 28.9342 176.09 28.0751C173.885 25.1829 171.68 22.3194 169.475 19.4272C169.36 19.2553 169.217 19.0835 169.074 18.9117C168.702 18.4249 168.673 18.3104 169.131 17.8522C171.336 15.6472 173.57 13.4709 175.775 11.266C176.29 10.7505 176.634 10.1778 176.491 9.43328C176.376 8.71739 175.975 8.25921 175.317 8.00149C174.658 7.74377 174.028 7.85831 173.541 8.34512C172.081 9.74827 170.649 11.1514 169.217 12.5832C167.356 14.4445 165.495 16.3345 163.633 18.1958C163.433 18.3963 163.175 18.5681 162.86 18.5394" stroke="#FF0000" stroke-width="0.572715" stroke-miterlimit="10" stroke-linecap="round" stroke-linejoin="round"/>
<path d="M16.99 11.4382C18.4504 11.3523 19.9968 12.555 20.2831 14.3304C20.5695 16.1917 19.2236 18.0817 17.305 18.2248C15.9878 18.3394 14.6419 18.2535 13.3246 18.2535C12.8951 18.2535 12.6946 18.0817 12.6946 17.6521C12.6946 15.7908 12.6946 13.2995 12.6946 11.4382L15.4642 11.4382" stroke="#FF0000" stroke-width="0.572715" stroke-miterlimit="10" stroke-linecap="round" stroke-linejoin="round"/>
<path d="M88.6649 16.0195C88.6649 16.5636 88.6649 17.1077 88.6649 17.6231C88.6649 18.0527 88.8654 18.2245 89.2949 18.2245C90.6408 18.2245 91.9867 18.3104 93.3325 18.1959C94.7357 18.0813 95.9957 17.0218 96.2247 15.2177C96.4825 13.2132 94.8502 11.3806 92.9316 11.4378C91.7862 11.4665 90.6122 11.4378 89.4667 11.4378C88.8367 11.4378 88.6649 11.581 88.6936 12.211C88.6936 12.6119 88.6936 12.9842 88.6936 13.3851" stroke="#FF0000" stroke-width="0.572715" stroke-miterlimit="10" stroke-linecap="round" stroke-linejoin="round"/>
<path d="M265.405 12.1543C265.405 16.3065 265.405 24.9825 265.405 29.1633C265.405 30.3374 266.121 31.0533 267.295 31.0533C269.07 31.0533 270.874 31.0533 272.65 31.0533" stroke="#FF0000" stroke-width="0.572715" stroke-miterlimit="10" stroke-linecap="round" stroke-linejoin="round"/>
<path d="M252.261 17.3654C250.514 14.96 248.738 12.5832 247.02 10.1778C246.591 9.57645 246.219 8.91783 245.674 8.40238C245.13 7.88694 244.472 7.82967 243.784 8.11603C243.069 8.40238 242.725 8.91783 242.725 9.66236C242.725 11.9532 242.725 14.2727 242.725 16.5636" stroke="#FF0000" stroke-width="0.572715" stroke-miterlimit="10" stroke-linecap="round" stroke-linejoin="round"/>
<path d="M76.3798 9.57708C76.3511 8.57483 77.1531 7.77252 78.0981 7.74388C79.1576 7.71525 80.0453 8.54568 80.0453 9.57657C80.0453 11.5524 80.0453 13.4997 80.0453 15.4755C80.0453 17.2509 80.0453 18.9977 80.0453 20.7731C80.0453 21.0595 80.0453 21.4609 80.0453 21.7473" stroke="#FF0000" stroke-width="0.572715" stroke-miterlimit="10" stroke-linecap="round" stroke-linejoin="round"/>
<path d="M209.794 29.4496C210.223 27.9605 209.565 26.7292 208.276 26.2996C206.529 25.6983 205.069 26.9582 204.954 28.5046C204.868 30.0223 206.415 31.54 208.219 30.9672" stroke="#FF0000" stroke-width="0.572715" stroke-miterlimit="10" stroke-linecap="round" stroke-linejoin="round"/>
<path d="M140.238 15.9624C141.154 18.1101 142.071 20.2291 142.987 22.3768C143.13 22.6918 143.388 23.3224 143.817 23.8951" stroke="#FF0000" stroke-width="0.572715" stroke-miterlimit="10" stroke-linecap="round" stroke-linejoin="round"/>
<path d="M162.573 9.86377C162.717 11.7251 162.831 16.6504 162.86 18.4545" stroke="#FF0000" stroke-width="0.572715" stroke-miterlimit="10" stroke-linecap="round" stroke-linejoin="round"/>
<path d="M187.058 21.9759C188.117 21.9759 193.071 21.8906 194.073 21.8899" stroke="#FF0000" stroke-width="0.572715" stroke-miterlimit="10" stroke-linecap="round" stroke-linejoin="round"/>
<path d="M191.036 15.2124C191.565 16.13 193.571 21.0229 194.073 21.8905M188.982 17.2654L187.057 21.8905" stroke="#FF0000" stroke-width="0.572715" stroke-miterlimit="10" stroke-linecap="round" stroke-linejoin="round"/>
<path d="M252.919 18.0247C253.492 18.7406 256.241 22.3773 256.757 23.0359" stroke="#FF0000" stroke-width="0.572715" stroke-miterlimit="10" stroke-linecap="round" stroke-linejoin="round"/>
</g>
<defs>
<filter id="filter0_d" x="0.981977" y="0.127406" width="287.037" height="40.6007" filterUnits="userSpaceOnUse" color-interpolation-filters="sRGB">
<feFlood flood-opacity="0" result="BackgroundImageFix"/>
<feColorMatrix in="SourceAlpha" type="matrix" values="0 0 0 0 0 0 0 0 0 0 0 0 0 0 0 0 0 0 127 0"/>
<feOffset dy="1.14543"/>
<feGaussianBlur stdDeviation="3.86582"/>
<feColorMatrix type="matrix" values="0 0 0 0 1 0 0 0 0 0 0 0 0 0 0 0 0 0 1 0"/>
<feBlend mode="normal" in2="BackgroundImageFix" result="effect1_dropShadow"/>
<feBlend mode="normal" in="SourceGraphic" in2="effect1_dropShadow" result="shape"/>
</filter>
</defs>
</svg>

<svg width="289" height="41" fill="none" xmlns="http://www.w3.org/2000/svg"><g filter="url(#filter0_d)" stroke="red" stroke-width=".573" stroke-miterlimit="10" stroke-linecap="round" stroke-linejoin="round"><path d="M194.187 13.357c-.515-1.403-1.059-2.778-1.546-4.181-.458-1.26-1.518-1.69-2.692-1.232-.601.258-.916.774-1.116 1.346-1.633 4.382-3.265 8.763-4.926 13.144-.744 2.005-1.518 4.01-2.291 6.014-.286.715-.086 1.718.458 2.176.602.487 1.26.601 2.005.286.687-.286.945-.887 1.174-1.517.372-1.031.802-2.062 1.174-3.122.172-.486.401-.687.945-.687 2.205.029 4.439 0 6.644 0 .801 0 .83.029 1.116.773l1.289 3.35c.286.802.83 1.26 1.689 1.346 1.203.115 2.32-1.202 1.833-2.52-1.031-2.806-2.119-5.583-3.178-8.361-.344-.916-2.275-6.012-2.619-6.928M50.694 24.152c.63-1.317.945-2.72 1.088-4.18a11.135 11.135 0 00-.773-5.298c-1.346-3.322-3.58-5.813-7.044-7.016C40.242 6.37 36.776 7 33.627 9.318c-2.778 2.12-4.295 4.984-4.639 8.391-.372 3.608.573 6.901 3.093 9.622 2.004 2.176 4.467 3.436 7.388 3.723 2.663.257 5.125-.516 7.33-2.034.716-.486 1.29-1.116 1.89-1.718m79.064-3.15c.63-1.317.945-2.72 1.088-4.18a11.136 11.136 0 00-.773-5.298c-1.346-3.322-3.58-5.813-7.045-7.016-3.722-1.289-7.187-.659-10.337 1.66-2.778 2.063-4.324 4.955-4.668 8.363-.372 3.608.573 6.9 3.093 9.65 2.004 2.176 4.467 3.436 7.388 3.723 2.663.257 5.126-.516 7.331-2.034.715-.486 1.288-1.116 1.89-1.718m110.877-3.15c.63-1.317.945-2.72 1.088-4.18a11.136 11.136 0 00-.773-5.298c-1.346-3.322-3.579-5.813-7.044-7.016-3.723-1.289-7.188-.659-10.338 1.66-2.777 2.063-4.324 4.955-4.667 8.363-.373 3.608.572 6.9 3.092 9.65 2.005 2.176 4.467 3.436 7.388 3.723 2.663.257 5.126-.516 7.331-2.034.716-.486 1.289-1.116 1.89-1.718m40.061 3.751h3.522c.974 0 1.833-.744 1.833-1.832.029-1.003-.83-1.833-1.89-1.833h-8.218c-.659 0-.774-.115-.774-.773v-4.467c-.028-.774.115-.888.888-.888h6.644c1.403 0 2.147-1.031 2.09-1.948-.057-1.059-.859-1.775-2.09-1.775h-6.758c-.688 0-.774-.086-.774-.773V12.24c-.028-.63.144-.774.774-.774l8.247-.028M97.141 30.481c1.432 2.434 4.246.471 2.877-2.95-.945-2.349-1.33-4.295-2.39-6.586v0c-.18-.361-.003-.756.274-1.05.56-.593 1.051-1.24 1.416-2.014 1.088-2.377.859-4.725-.516-6.901-1.03-1.604-2.52-2.635-4.41-3.064-.601-.144-1.231-.2-1.832-.23a166.88 166.88 0 00-5.355 0c-.544 0-1.06.086-1.518.43-.458.372-.687.802-.687 1.403v11.197c0 .515-.029 1.002-.057 1.517"/><path d="M218.699 17.824c-.286 2.663.315 5.011 2.177 7.015 1.26 1.346 2.777 2.148 4.581 2.406 2.005.258 3.78-.344 5.298-1.575 1.69-1.375 2.749-3.15 3.035-5.326.344-2.835-.4-5.298-2.462-7.36-1.06-1.06-2.32-1.775-3.809-2.004-2.491-.344-4.696.286-6.5 2.09-.143.143-.315.258-.401.344m-110.763 4.41c-.286 2.663.315 5.011 2.176 7.015 1.26 1.346 2.778 2.148 4.582 2.406 2.004.258 3.78-.344 5.298-1.575 1.689-1.375 2.749-3.15 3.035-5.326.344-2.835-.401-5.298-2.463-7.36-1.059-1.06-2.319-1.775-3.808-2.004-2.492-.344-4.697.286-6.501 2.09-.143.143-.315.258-.401.344m-78.977 4.41c-.286 2.663.315 5.011 2.176 7.015 1.26 1.346 2.778 2.148 4.582 2.406 2.005.258 3.78-.344 5.298-1.575 1.69-1.375 2.749-3.15 3.035-5.326.344-2.835-.4-5.298-2.463-7.36-1.06-1.06-2.32-1.775-3.808-2.004-2.492-.344-4.697.286-6.5 2.09-.144.143-.316.258-.401.344m222.07 9.622c0-3.809 0-9.393-.028-13.202 0-.801.572-1.632 1.517-1.775a1.81 1.81 0 012.005 1.174c.143.372.114.802.114 1.231V28.62c0 .487.029.974-.2 1.46-.544 1.146-2.205 1.404-3.036.287-1.345-1.832-2.691-3.636-4.009-5.47-1.804-2.49-5.011-5.955-6.815-8.446M60.487 14.817V9.634c0-.83-.602-1.661-1.346-1.833-.888-.229-1.747.143-2.176.945-.115.2-.172.43-.172.659v19.93c0 .802.716 1.747 1.861 1.747 2.176-.029 4.353 0 6.53 0h4.294c.802 0 1.69-.43 1.89-1.575.144-.773-.229-1.604-1.202-2.005a1.923 1.923 0 00-.688-.114h-8.103c-.83 0-.888-.086-.888-.888v-9.793m78.548-3.551c-.2-.63-1.374-3.408-1.661-4.01-.286-.6-.744-1.059-1.46-1.116-.831-.086-1.489.2-1.89.945a1.826 1.826 0 00-.057 1.546c1.689 4.01 3.379 7.99 5.068 11.97a322.259 322.259 0 013.007 7.245c.458 1.117 1.575 1.66 2.577 1.174.43-.2.716-.516.888-.945.916-2.12 1.832-4.21 2.692-6.357m14.374-13.745c0-.973-.916-2.005-1.918-1.976-.945.029-1.747.974-1.747 1.89.028 6.472.028 12.915 0 19.386 0 .917.687 1.833 1.689 1.89a1.842 1.842 0 001.948-1.69c.114-1.46.028-2.891.057-4.352 0-.4.086-.716.401-1.002.744-.716 1.46-1.46 2.176-2.234.859-.887 1.002-.658 1.632.115.917 1.174 1.833 2.377 2.749 3.55M23.461 17.71c1.718-4.095-.544-8.734-5.154-9.851-.43-.115-.888-.086-1.346-.115-2.09-.086-4.181-.114-6.271 0C9.573 7.83 9 8.546 9 9.634c0 2.692.086 9.422.086 12.114"/><path d="M21.37 20.458c-1.403 1.088-2.978 1.547-4.696 1.604-1.03.028-2.09 0-3.121 0-.63 0-.773.143-.773.773v6.3c0 1.288-1.146 2.205-2.291 1.89-.802-.2-1.403-.888-1.403-1.747V21.69m139.17 1.775c.887-2.09 3.522-8.076 4.409-10.166.401-.974.859-1.919 1.232-2.893.343-.887-.058-1.775-.945-2.233-.859-.43-1.947-.086-2.32.573-.343.572-.544 1.202-.802 1.832-1.202 2.778-2.405 5.556-3.579 8.362-.515 1.26-1.031 2.176-1.546 3.436-.172.43-.458.946-.888 1.518M97.141 30.48c-.83-2.004-2.004-5.326-2.691-7.388-.344-1.06-.344-1.06-1.46-1.06h-3.523c-.63 0-.773.144-.773.774v6.3c0 .801-.344 1.431-1.06 1.775-.658.315-1.346.258-1.947-.2-.43-.344-.687-.774-.687-1.346v-4.238c0-.2.028-.373-.057-.544m161.333-8.103c0 .286-.029.973 0 1.288v11.54c0 1.06-.774 1.833-1.833 1.833-.974 0-1.747-.802-1.747-1.833v-8.963m35.395-8.877c1.145-.057 1.689-.802 1.861-1.489a1.788 1.788 0 00-.802-1.947c-.401-.258-.859-.344-1.346-.344h-10.28c-.601 0-1.174.143-1.604.573-.343.315-.515.716-.515 1.231.029.974 0 1.919 0 2.893M76.379 9.577v19.815c0 .83.63 1.604 1.747 1.661.945.057 1.918-.63 1.947-1.718.029-1.833-.057-3.66-.057-5.527m90.805 3.351c.83 1.06 1.575 2.176 2.463 3.178.744.86 1.66.974 2.462.344.859-.716 1.002-1.747.344-2.606-2.205-2.892-4.41-5.756-6.615-8.648-.115-.172-.258-.343-.401-.515-.372-.487-.401-.602.057-1.06 2.205-2.205 4.439-4.381 6.644-6.586.515-.515.859-1.088.716-1.833-.115-.716-.516-1.174-1.174-1.432-.659-.257-1.289-.143-1.776.344a305.034 305.034 0 00-4.324 4.238c-1.861 1.861-3.722 3.751-5.584 5.613-.2.2-.458.372-.773.343M16.99 11.438c1.46-.086 3.007 1.117 3.293 2.892.287 1.862-1.06 3.752-2.978 3.895-1.317.114-2.663.028-3.98.028-.43 0-.63-.171-.63-.6v-6.215h2.77m73.2 4.582v1.603c0 .43.2.601.63.601 1.346 0 2.692.086 4.037-.028 1.404-.115 2.664-1.174 2.893-2.978.258-2.005-1.375-3.837-3.293-3.78-1.146.028-2.32 0-3.465 0-.63 0-.802.143-.773.773v1.174"/><path d="M265.405 12.154v17.01c0 1.173.716 1.89 1.89 1.89h5.355m-20.389-13.689c-1.747-2.405-3.523-4.782-5.241-7.187-.429-.602-.801-1.26-1.346-1.776-.544-.515-1.202-.572-1.89-.286-.715.286-1.059.802-1.059 1.546v6.902M76.38 9.577a1.787 1.787 0 011.718-1.833c1.06-.029 1.947.802 1.947 1.833v12.17m129.749 7.703c.429-1.49-.229-2.72-1.518-3.15-1.747-.602-3.207.658-3.322 2.205-.086 1.517 1.461 3.035 3.265 2.462m-67.981-15.005c.916 2.148 1.833 4.267 2.749 6.415.143.315.401.945.83 1.518m18.756-14.031c.144 1.861.258 6.786.287 8.59m24.198 3.522c1.059 0 6.013-.085 7.015-.086m-3.037-6.678c.529.918 2.535 5.81 3.037 6.678m-5.091-4.625l-1.925 4.625m65.862-3.865c.573.716 3.322 4.352 3.838 5.01"/></g><defs><filter id="filter0_d" x=".982" y=".127" width="287.037" height="40.601" filterUnits="userSpaceOnUse" color-interpolation-filters="sRGB"><feFlood flood-opacity="0" result="BackgroundImageFix"/><feColorMatrix in="SourceAlpha" values="0 0 0 0 0 0 0 0 0 0 0 0 0 0 0 0 0 0 127 0"/><feOffset dy="1.145"/><feGaussianBlur stdDeviation="3.866"/><feColorMatrix values="0 0 0 0 1 0 0 0 0 0 0 0 0 0 0 0 0 0 1 0"/><feBlend in2="BackgroundImageFix" result="effect1_dropShadow"/><feBlend in="SourceGraphic" in2="effect1_dropShadow" result="shape"/></filter></defs></svg>
